images/icon/ice-cream-mark.svg

<svg width="66" height="114" viewBox="0 0 66 114" fill="none" xmlns="http://www.w3.org/2000/svg">
<path d="M33.1221 5.70938C37.2523 5.70837 41.3104 6.76966 44.8896 8.7869C48.4688 10.8041 51.4435 13.7065 53.5156 17.2032C55.5877 20.6999 56.6846 24.6681 56.6962 28.7103C56.7078 32.7525 55.6339 36.7268 53.5819 40.2348C55.0053 40.4337 56.344 41.0167 57.4479 41.9183C58.5519 42.8199 59.3775 44.0046 59.8322 45.3396C60.2869 46.6746 60.3528 48.1071 60.0225 49.4767C59.6922 50.8462 58.9787 52.0987 57.9619 53.0937C56.9452 54.0888 55.6655 54.7871 54.2661 55.1104C52.8667 55.4337 51.4029 55.3692 50.0389 54.9241C48.6748 54.4791 47.4643 53.6711 46.5431 52.5907C45.6218 51.5103 45.0262 50.2001 44.8229 48.807C44.5312 48.9702 44.2312 49.1251 43.9312 49.2801C43.5143 51.7917 42.1979 54.0763 40.2176 55.725C38.2372 57.3737 35.722 58.279 33.1221 58.279C30.5221 58.279 28.0069 57.3737 26.0266 55.725C24.0462 54.0763 22.7298 51.7917 22.313 49.2801C22.0129 49.1251 21.7129 48.9702 21.4212 48.807C21.2185 50.2014 20.6226 51.5129 19.7005 52.5942C18.7785 53.6756 17.5667 54.484 16.2012 54.9288C14.8358 55.3736 13.3707 55.4371 11.9704 55.1122C10.5701 54.7873 9.29001 54.0869 8.27387 53.0896C7.25772 52.0923 6.54571 50.8375 6.21776 49.4661C5.8898 48.0948 5.95889 46.6611 6.41726 45.326C6.87563 43.9909 7.70514 42.8073 8.81268 41.908C9.92022 41.0087 11.262 40.4293 12.6873 40.2348C10.6363 36.7286 9.56239 32.7566 9.57292 28.7164C9.58344 24.6763 10.6781 20.7098 12.7473 17.2138C14.8165 13.7178 17.7876 10.815 21.3633 8.79605C24.9391 6.77706 28.9939 5.71266 33.1221 5.70938ZM33.1221 5.48995e-06C28.4944 -0.00279229 23.9314 1.0638 19.8045 3.11298C15.6776 5.16215 12.1034 8.13601 9.37279 11.7925C6.64214 15.449 4.83222 19.6849 4.09034 24.1553C3.34845 28.6257 3.69556 33.2044 5.10341 37.5188C2.37507 39.6476 0.590968 42.7245 0.12265 46.1085C-0.345668 49.4926 0.537892 52.923 2.58933 55.6855C4.64077 58.4479 7.70196 60.3294 11.1354 60.9382C14.5689 61.5469 18.1099 60.836 21.0212 58.9534C22.5932 60.5499 24.478 61.8199 26.5629 62.6873C28.6478 63.5547 30.8899 64.0017 33.1554 64.0017C35.4209 64.0017 37.6631 63.5547 39.748 62.6873C41.8328 61.8199 43.7176 60.5499 45.2896 58.9534C48.202 60.7271 51.6933 61.3538 55.0593 60.7071C58.4253 60.0604 61.4154 58.1885 63.4265 55.469C65.4377 52.7494 66.3202 49.3846 65.8959 46.0533C65.4717 42.722 63.7724 39.6721 61.1407 37.5188C62.5486 33.2044 62.8957 28.6257 62.1538 24.1553C61.4119 19.6849 59.602 15.449 56.8714 11.7925C54.1407 8.13601 50.5665 5.16215 46.4396 3.11298C42.3127 1.0638 37.7497 -0.00279229 33.1221 5.48995e-06Z" fill="white"/>
<path d="M52.4818 64.2795C50.187 64.2745 47.9177 63.8081 45.8146 62.9092C45.5063 63.1539 45.1813 63.3741 44.8562 63.6025L45.2979 64.0266L42.0477 67.2076L40.6559 65.8455C40.0809 66.0657 39.4975 66.2614 38.8975 66.4327L40.8643 68.3576L37.6224 71.5385L34.3555 68.3576L35.6472 67.0934C34.818 67.1969 33.9831 67.2514 33.1471 67.2565C32.3362 67.2547 31.5262 67.2029 30.7219 67.1015L32.0053 68.3576L28.7551 71.5385L25.5049 68.3576L27.455 66.449C26.8617 66.2827 26.2776 66.0867 25.7049 65.8618L24.3048 67.2076L21.0212 64.0266L21.4296 63.627C21.0879 63.3904 20.7545 63.162 20.4295 62.9092C18.3265 63.8081 16.0572 64.2745 13.7624 64.2795C13.5957 64.2795 13.429 64.2795 13.2623 64.2795C13.1991 64.724 13.2448 65.1769 13.3957 65.6008L30.3802 112.189C30.3988 112.245 30.4211 112.3 30.4469 112.352C30.4696 112.409 30.4975 112.464 30.5302 112.516C30.5886 112.63 30.6552 112.736 30.7219 112.842L30.7969 112.948C30.8995 113.082 31.0138 113.208 31.1386 113.323L31.2219 113.388L31.547 113.633L31.697 113.715C31.8123 113.777 31.9321 113.832 32.0553 113.878H32.147L32.4804 113.959H32.6137C32.9224 114.014 33.2384 114.014 33.5471 113.959H33.6888L34.0138 113.878H34.1555C34.2753 113.83 34.3922 113.775 34.5055 113.715L34.6555 113.625C34.7725 113.558 34.8815 113.479 34.9805 113.388L35.0722 113.323C35.1948 113.206 35.3089 113.08 35.4139 112.948L35.4806 112.842C35.5551 112.738 35.622 112.629 35.6806 112.516L35.8306 112.189L52.8485 65.5763C53.0033 65.1533 53.049 64.6995 52.9818 64.255C52.8151 64.255 52.6901 64.2795 52.4818 64.2795ZM40.8143 77.0277L37.5641 80.2086L34.3555 77.0277L37.5974 73.8467L40.8143 77.0277ZM29.9052 81.3587L33.1554 78.1777L36.4056 81.3587L33.1554 84.5396L29.9052 81.3587ZM36.4056 90.0288L33.1554 93.2097L29.9052 90.0288L33.1554 86.8478L36.4056 90.0288ZM33.1554 69.5158L36.4056 72.6967L33.1554 75.8532L29.9052 72.6722L33.1554 69.5158ZM31.9803 77.0277L28.7301 80.2086L25.4799 77.0277L28.7301 73.8467L31.9803 77.0277ZM19.5544 65.4947L19.8711 65.1848L23.1214 68.3576L21.2629 70.1438L19.5544 65.4947ZM21.8546 71.8811L24.2714 69.5158L27.5133 72.6967L24.3048 75.8532L22.813 74.3932L21.8546 71.8811ZM24.2131 78.3001L24.3048 78.2103L27.5467 81.3913L25.9216 83.0225L24.2131 78.3001ZM27.6883 87.8837L26.5049 84.6212L28.6968 82.4842L31.947 85.6652L28.7301 88.9032L27.6883 87.8837ZM30.5469 95.73L28.9884 91.4724L31.947 94.3597L30.5469 95.73ZM33.0887 102.712L31.1636 97.4265L33.1221 95.5098L35.0305 97.3775L33.0887 102.712ZM35.6556 95.681L34.3555 94.3597L37.1974 91.5703L35.6556 95.681ZM38.5225 87.9897L37.5807 88.9032L34.3555 85.6896L37.5974 82.5168L39.7392 84.6049L38.5225 87.9897ZM40.3726 82.9083L38.7975 81.3587L42.0477 78.1777V78.2185L40.3726 82.9083ZM43.4311 74.5156L42.0144 75.8532L38.7641 72.6722L42.0144 69.4913L44.3562 71.8321L43.4311 74.5156ZM44.9979 70.1438L43.1894 68.3657L46.4397 65.1848L46.7064 65.4458L44.9979 70.1438Z" fill="white"/>
</svg>

<svg width="66" height="114" fill="none" xmlns="http://www.w3.org/2000/svg"><path d="M33.12 5.7c4.13 0 8.19 1.07 11.77 3.09a23.33 23.33 0 0 1 8.63 8.41 22.69 22.69 0 0 1 .06 23.03c1.43.2 2.76.79 3.87 1.69a7.42 7.42 0 0 1 .51 11.18 7.79 7.79 0 0 1-7.92 1.82 7.75 7.75 0 0 1-3.5-2.33 7.5 7.5 0 0 1-1.72-3.78l-.89.47a10.66 10.66 0 0 1-3.71 6.45 11.1 11.1 0 0 1-14.2 0 10.66 10.66 0 0 1-3.7-6.45l-.9-.47a7.5 7.5 0 0 1-1.72 3.78 7.9 7.9 0 0 1-11.43.5 7.53 7.53 0 0 1-1.85-7.76 7.57 7.57 0 0 1 2.4-3.42 7.83 7.83 0 0 1 3.87-1.68 22.69 22.69 0 0 1 .06-23.02c2.07-3.5 5.04-6.4 8.61-8.41a23.96 23.96 0 0 1 11.76-3.1Zm0-5.7C28.5 0 23.93 1.06 19.8 3.11A29.24 29.24 0 0 0 9.37 11.8 28.18 28.18 0 0 0 5.1 37.52 13.05 13.05 0 0 0 2.6 55.69a13.59 13.59 0 0 0 8.55 5.25c3.43.6 6.97-.1 9.88-1.99a17.17 17.17 0 0 0 24.27 0 13.8 13.8 0 0 0 9.77 1.76 13.58 13.58 0 0 0 8.37-5.24 13.05 13.05 0 0 0-2.29-17.95 28.18 28.18 0 0 0-4.27-25.73 29.24 29.24 0 0 0-10.43-8.68A29.92 29.92 0 0 0 33.12 0Z" fill="#fff"/><path d="M52.48 64.28c-2.3 0-4.56-.47-6.67-1.37-.3.24-.63.46-.95.7l.44.42-3.25 3.18-1.4-1.36c-.57.22-1.15.41-1.75.58l1.96 1.93-3.24 3.18-3.26-3.18 1.29-1.27a19.74 19.74 0 0 1-4.93 0l1.29 1.27-3.25 3.18-3.26-3.18 1.95-1.91a18.3 18.3 0 0 1-1.75-.59l-1.4 1.35-3.28-3.18.41-.4c-.34-.24-.68-.47-1-.72-2.1.9-4.37 1.36-6.67 1.37h-.5c-.06.44-.02.9.14 1.32l16.98 46.59.07.16.08.17.2.32.07.1c.1.14.21.27.34.38l.08.07.33.24.15.09c.11.06.23.11.36.16h.09l.33.08h.13c.31.05.63.05.94 0h.14l.32-.08h.15l.35-.16.15-.1c.11-.06.22-.14.32-.23l.1-.07c.11-.11.23-.24.33-.37l.07-.1c.08-.11.14-.22.2-.33l.15-.33 17.02-46.61c.15-.43.2-.88.13-1.33-.16 0-.29.03-.5.03ZM40.81 77.03l-3.25 3.18-3.2-3.18 3.24-3.18 3.21 3.18Zm-10.9 4.33 3.25-3.18 3.25 3.18-3.25 3.18-3.25-3.18Zm6.5 8.67-3.25 3.18-3.25-3.18 3.25-3.18 3.25 3.18Zm-3.25-20.51 3.25 3.18-3.25 3.15-3.25-3.18 3.25-3.15Zm-1.18 7.5-3.25 3.19-3.25-3.18 3.25-3.18 3.25 3.18ZM19.55 65.5l.32-.3 3.25 3.17-1.86 1.78-1.7-4.65Zm2.3 6.4 2.42-2.37 3.24 3.18-3.2 3.15-1.5-1.46-.96-2.5Zm2.36 6.41.1-.09 3.24 3.18-1.63 1.63-1.7-4.72Zm3.48 9.58-1.19-3.26 2.2-2.14 3.25 3.19-3.22 3.23-1.04-1.02Zm2.86 7.85-1.56-4.26 2.96 2.89-1.4 1.37Zm2.54 6.98-1.93-5.28 1.96-1.92 1.91 1.87-1.94 5.33Zm2.57-7.03-1.3-1.32 2.84-2.79-1.54 4.11ZM38.52 88l-.94.91-3.22-3.21 3.24-3.17 2.14 2.08L38.52 88Zm1.85-5.08-1.57-1.55 3.25-3.18v.04l-1.68 4.69Zm3.06-8.4-1.42 1.34-3.25-3.18 3.25-3.18 2.35 2.34-.93 2.69ZM45 70.15l-1.81-1.77 3.25-3.19.27.27-1.71 4.7Z" fill="#fff"/></svg>
